fs/presenter_off_20_filled.svg

<svg viewBox="0 0 20 20" fill="none" xmlns="http://www.w3.org/2000/svg" height="1em" width="1em">
  <path d="M7.14618 7.8533C7.05247 8.04912 7 8.26843 7 8.5V9H8.29288L9.29288 10H3.49051C3.04042 10 2.8195 10.5482 3.14379 10.8603L6.84664 14.4239C6.94458 14.5182 6.99993 14.6482 6.99993 14.7842V16.5C6.99993 17.3284 7.6715 18 8.49993 18H11.4999C12.3284 18 12.9999 17.3284 12.9999 16.5V14.7842C12.9999 14.6482 13.0553 14.5182 13.1532 14.4239L13.4404 14.1475L17.1464 17.8536C17.3417 18.0488 17.6583 18.0488 17.8536 17.8536C18.0488 17.6583 18.0488 17.3417 17.8536 17.1465L7.8533 7.14618C7.85331 7.14618 7.8533 7.14618 7.8533 7.14618L2.85355 2.14646C2.65829 1.9512 2.34171 1.9512 2.14645 2.14646C1.95118 2.34172 1.95118 2.65831 2.14645 2.85357L7.14618 7.8533ZM16.8561 10.8603L14.8817 12.7604L12.1213 10H16.5093C16.9594 10 17.1804 10.5482 16.8561 10.8603ZM13 9H11.1213L9.12134 7H11.5C12.3284 7 13 7.67157 13 8.5V9ZM10 6C11.1046 6 12 5.10457 12 4C12 2.89543 11.1046 2 10 2C8.89543 2 8 2.89543 8 4C8 5.10457 8.89543 6 10 6Z" fill="#212121"/>
</svg>

<svg viewBox="0 0 20 20" fill="none" xmlns="http://www.w3.org/2000/svg" height="1em" width="1em">
  <path d="M7.146 7.853A1.494 1.494 0 0 0 7 8.5V9h1.293l1 1H3.49a.5.5 0 0 0-.347.86l3.703 3.564a.5.5 0 0 1 .153.36V16.5A1.5 1.5 0 0 0 8.5 18h3a1.5 1.5 0 0 0 1.5-1.5v-1.716a.5.5 0 0 1 .153-.36l.287-.276 3.706 3.706a.5.5 0 0 0 .708-.707l-10-10-5-5a.5.5 0 1 0-.708.707l5 5Zm9.71 3.007-1.974 1.9-2.76-2.76h4.387a.5.5 0 0 1 .347.86ZM13 9h-1.879l-2-2H11.5A1.5 1.5 0 0 1 13 8.5V9Zm-3-3a2 2 0 1 0 0-4 2 2 0 0 0 0 4Z" fill="#212121"/>
</svg>
